packages/ui-icons/svg/Solid/numbered-list.svg

<svg viewBox="0 0 1920 1920" version="1.1" xmlns="http://www.w3.org/2000/svg">
    <path d="M169.411765,1355.29412 C262.814118,1355.29412 338.823529,1431.30353 338.823529,1524.70588 C338.823529,1568.30118 321.882353,1607.60471 294.776471,1637.64706 C321.882353,1667.68941 338.823529,1706.99294 338.823529,1750.58824 C338.823529,1843.99059 262.814118,1920 169.411765,1920 L169.411765,1920 L0,1920 L0,1807.05882 L169.411765,1807.05882 C200.470588,1807.05882 225.882353,1781.64706 225.882353,1750.58824 C225.882353,1719.52941 200.470588,1694.11765 169.411765,1694.11765 L169.411765,1694.11765 L0,1694.11765 L0,1581.17647 L169.411765,1581.17647 C200.470588,1581.17647 225.882353,1555.76471 225.882353,1524.70588 C225.882353,1493.64706 200.470588,1468.23529 169.411765,1468.23529 L169.411765,1468.23529 L0,1468.23529 L0,1355.29412 Z M1920,1355.29412 L1920,1581.17647 L564.705882,1581.17647 L564.705882,1355.29412 L1920,1355.29412 Z M188.058353,677.669647 C249.837176,677.669647 306.872471,716.069647 333.413647,775.363765 C362.213647,839.401412 348.773647,911.909647 297.498353,969.396706 C281.212235,987.659294 263.3904,1007.27774 245.311228,1026.97851 L242.209659,1030.35635 C240.140584,1032.60847 238.069102,1034.86071 235.997121,1037.11117 L232.889014,1040.4853 L232.889014,1040.4853 L229.781591,1043.85534 C201.304376,1074.72424 173.093647,1104.89788 150.110118,1129.43435 L338.834824,1129.43435 L338.834824,1242.37553 L56.4818824,1242.37553 C25.1971765,1242.37553 0.0112941176,1217.07671 0.0112941176,1185.90494 L0.0112941176,1146.37553 C0.0112941176,1131.91906 5.54541176,1117.91435 15.5971765,1107.41082 C15.7101176,1107.29788 133.056,983.853176 213.244235,894.177882 C234.590118,870.234353 240.688941,844.370824 230.411294,821.556706 C222.279529,803.260235 204.773647,790.610824 188.058353,790.610824 C147.512471,790.610824 105.159529,839.062588 93.6395294,856.116706 L0.0112941176,792.982588 C7.80423529,781.236706 80.4254118,677.669647 188.058353,677.669647 Z M1920,790.588235 L1920,1016.47059 L564.705882,1016.47059 L564.705882,790.588235 L1920,790.588235 Z M169.411765,2.5243549e-29 C200.583529,2.5243549e-29 225.882353,25.2988235 225.882353,56.4705882 L225.882353,56.4705882 L225.882353,564.705882 L112.941176,564.705882 L112.941176,112.941176 L0,112.941176 L0,2.5243549e-29 Z M1920,225.882353 L1920,451.764706 L564.705882,451.764706 L564.705882,225.882353 L1920,225.882353 Z" stroke="none" stroke-width="1" fill-rule="evenodd"/>
</svg>

<svg viewBox="0 0 1920 1920" xmlns="http://www.w3.org/2000/svg">
    <path d="M169.412 1355.294c93.402 0 169.412 76.01 169.412 169.412 0 43.595-16.942 82.899-44.048 112.941 27.106 30.042 44.048 69.346 44.048 112.941 0 93.403-76.01 169.412-169.412 169.412H0v-112.941h169.412c31.059 0 56.47-25.412 56.47-56.47 0-31.06-25.411-56.471-56.47-56.471H0v-112.942h169.412c31.059 0 56.47-25.411 56.47-56.47 0-31.059-25.411-56.47-56.47-56.47H0v-112.942Zm1750.588 0v225.882H564.706v-225.882H1920ZM188.058 677.67c61.78 0 118.814 38.4 145.356 97.694 28.8 64.037 15.36 136.546-35.916 194.033-16.286 18.262-34.108 37.88-52.187 57.582l-3.101 3.377c-2.07 2.252-4.14 4.505-6.213 6.755l-3.108 3.374-3.107 3.37c-28.478 30.87-56.688 61.043-79.672 85.58h188.725v112.94H56.482c-31.285 0-56.47-25.298-56.47-56.47v-39.53c0-14.456 5.533-28.46 15.585-38.964.113-.113 117.459-123.558 197.647-213.233 21.346-23.944 27.445-49.807 17.167-72.621-8.131-18.297-25.637-30.946-42.353-30.946-40.546 0-82.898 48.452-94.418 65.506L.01 792.983C7.804 781.237 80.425 677.67 188.058 677.67ZM1920 790.588v225.883H564.706V790.588H1920ZM169.412 0c31.172 0 56.47 25.299 56.47 56.47v508.236h-112.94V112.94H0V0ZM1920 225.882v225.883H564.706V225.882H1920Z" fill-rule="evenodd"/>
</svg>
